X:395
T:Floru (CT 309)
R:Floru
C:Tradicional
S:Msica Tradicional Asturiana, (C) Tello & Tito. Asturies, 2001.
S:http://pagina.de/MusTradAst <telloytito@asturies.org>
N:Meloda de gaita, transcrita en Uviu.
N:Sirve como introduccin para acompaar a un cantor.
A:Asturies
O:Uviu
Z:Cancioneru de Torner 309
M:2/4
L:1/8
Q:3/8=84
K:G
d4-|dd/>c/ B/>c/A/>B/|G (3A/B/c/ d (3e/f/e/|d4-|
d (3e/d/e/ c (3d/c/d/|B (3c/B/c/ A (3 B/A/B/|G (3 A/G/A/ F (3A/F/A/|
G2 G (3A/B/A/|G (3A/B/A/ G/(3A/4B/4A/4 G/(3A/4B/4A/4|G4-|G4|
